packages/merlin-www-assets/imports/brides/icons/gallery-grid.svg

<svg viewBox="0 0 20 20" xmlns="http://www.w3.org/2000/svg"><path d="m0 0h2v2h-2zm9 0h2v2h-2zm9 0h2v2h-2zm-18 9h2v2h-2zm9 0h2v2h-2zm9 0h2v2h-2zm-18 9h2v2h-2zm9 0h2v2h-2zm9 0h2v2h-2z"/></svg>

<svg xmlns="http://www.w3.org/2000/svg" viewBox="0 0 20 20"><title>grid</title>
  <path d="M0,0 L2,0 L2,2 L0,2 L0,0 Z M9,0 L11,0 L11,2 L9,2 L9,0 Z M18,0 L20,0 L20,2 L18,2 L18,0 Z M0,9 L2,9 L2,11 L0,11 L0,9 Z M9,9 L11,9 L11,11 L9,11 L9,9 Z M18,9 L20,9 L20,11 L18,11 L18,9 Z M0,18 L2,18 L2,20 L0,20 L0,18 Z M9,18 L11,18 L11,20 L9,20 L9,18 Z M18,18 L20,18 L20,20 L18,20 L18,18 Z"/>
</svg>
